X:1
T:Title
%%score { 1 | 2 }
L:1/8
Q:1/4=100
M:4/4
K:Ab
V:1 treble nm="Grand Piano"
V:2 treble 
V:1
 E2 F2 E3 A | d2 c2 c2 B2 | A2 A2 [FA]3 F | E2 [EA]2 B4 | E2 F2 E3 A | d2 c2 c2 B2 | %6
w: A.~E.~Lind * * *||||||
 A2 A2 [FA]3 F | E2 E2 [CE]4 |] %8
w: ||
V:2
 [A,C]2 [A,_C]2 [A,=C]3 [A,C] | [A,F]2[K:bass] [A,E]2 [E,A,E]2 [E,G,D]2 | %2
 [F,A,C]2 [F,CF]2 [D,D]3 [D,A,D] | [C,A,]2 [C,A,]2 [E,G,E]4 | %4
 [A,C]2 [A,_C]2[K:treble] [A,=C]3 [A,C] | [A,F]2[K:bass] [A,E]2 [E,A,E]2 [E,G,D]2 | %6
 [F,A,C]2 [F,CF]2 [D,D]3 [D,A,D] | [E,A,C]2 [E,G,B,]2 [A,,A,]4 |] %8

